openmetadata-ui/src/main/resources/ui/src/assets/svg/ic-delete.svg

<svg viewBox="0 0 24 24" fill="none" xmlns="http://www.w3.org/2000/svg">
<path d="M20.1843 2.8125H16.6687V2.10938C16.6687 0.946266 15.7224 0 14.5593 0H8.93433C7.77122 0 6.82495 0.946266 6.82495 2.10938V2.8125H3.30933C2.14622 2.8125 1.19995 3.75877 1.19995 4.92188C1.19995 5.856 1.8105 6.64973 2.65331 6.9263L3.90745 22.0658C3.99778 23.1504 4.92112 24 6.00951 24H17.4841C18.5726 24 19.4959 23.1504 19.5863 22.0654L20.8403 6.92625C21.6832 6.64973 22.2937 5.856 22.2937 4.92188C22.2937 3.75877 21.3474 2.8125 20.1843 2.8125ZM8.2312 2.10938C8.2312 1.72167 8.54662 1.40625 8.93433 1.40625H14.5593C14.947 1.40625 15.2625 1.72167 15.2625 2.10938V2.8125H8.2312V2.10938ZM18.1848 21.949C18.1547 22.3105 17.847 22.5938 17.4841 22.5938H6.00951C5.64675 22.5938 5.33897 22.3105 5.30892 21.9494L4.07311 7.03125H19.4205L18.1848 21.949ZM20.1843 5.625H3.30933C2.92162 5.625 2.6062 5.30958 2.6062 4.92188C2.6062 4.53417 2.92162 4.21875 3.30933 4.21875H20.1843C20.572 4.21875 20.8875 4.53417 20.8875 4.92188C20.8875 5.30958 20.572 5.625 20.1843 5.625Z" fill="#37352F"/>
<path d="M9.18619 20.4409L8.48307 9.09715C8.45902 8.70954 8.12354 8.41474 7.7378 8.43888C7.3502 8.46293 7.05549 8.79659 7.07949 9.18415L7.78262 20.5279C7.80573 20.9007 8.11529 21.1876 8.48373 21.1876C8.89093 21.1876 9.21118 20.8446 9.18619 20.4409Z" fill="#37352F"/>
<path d="M12 8.4375C11.6117 8.4375 11.2969 8.75231 11.2969 9.14062V20.4844C11.2969 20.8727 11.6117 21.1875 12 21.1875C12.3883 21.1875 12.7031 20.8727 12.7031 20.4844V9.14062C12.7031 8.75231 12.3883 8.4375 12 8.4375Z" fill="#37352F"/>
<path d="M16.2622 8.43887C15.8755 8.41483 15.541 8.70953 15.517 9.09714L14.8139 20.4409C14.7899 20.8284 15.0846 21.1621 15.4722 21.1861C15.86 21.2101 16.1934 20.9153 16.2174 20.5279L16.9206 9.18414C16.9446 8.79653 16.6499 8.46287 16.2622 8.43887Z" fill="#37352F"/>
</svg>

<svg xmlns="http://www.w3.org/2000/svg" fill="none" viewBox="0 0 24 24"><path fill="#37352F" d="M20.184 2.813H16.67v-.704C16.669.946 15.722 0 14.559 0H8.934C7.771 0 6.825.946 6.825 2.11v.703H3.309c-1.163 0-2.109.946-2.109 2.109 0 .934.61 1.728 1.453 2.004l1.254 15.14A2.122 2.122 0 0 0 6.01 24h11.474c1.089 0 2.012-.85 2.102-1.935L20.84 6.926a2.113 2.113 0 0 0 1.454-2.004c0-1.163-.947-2.11-2.11-2.11ZM8.231 2.109c0-.387.316-.703.703-.703h5.625c.388 0 .704.316.704.703v.704H8.23v-.704Zm9.954 19.84a.707.707 0 0 1-.7.645H6.01a.707.707 0 0 1-.701-.645L4.073 7.031h15.348L18.184 21.95Zm2-16.324H3.308a.704.704 0 0 1 0-1.406h16.875a.704.704 0 0 1 0 1.406Z"/><path fill="#37352F" d="M9.186 20.44 8.483 9.098a.704.704 0 0 0-1.404.087l.704 11.344a.703.703 0 1 0 1.403-.087ZM12 8.438a.703.703 0 0 0-.703.703v11.343a.703.703 0 0 0 1.406 0V9.141A.703.703 0 0 0 12 8.437ZM16.262 8.439a.704.704 0 0 0-.745.658l-.703 11.344a.703.703 0 0 0 1.403.087l.704-11.344a.703.703 0 0 0-.659-.745Z"/></svg>
